src/assets/icons/blockchain-gasfee.svg

<svg width="16" height="16" viewBox="0 0 16 16" fill="none" xmlns="http://www.w3.org/2000/svg">
<g clip-path="url(#clip0_9724_326)">
<path fill-rule="evenodd" clip-rule="evenodd" d="M2.52946 0.295359C1.19707 0.503359 0.113205 1.48194 -0.209346 2.76815C-0.308777 3.16465 -0.302279 2.77673 -0.309255 8.73244C-0.313976 12.7625 -0.309867 14.2947 -0.294021 14.4247C-0.263209 14.6776 -0.212328 14.8471 -0.0948334 15.0879C0.15602 15.6021 0.581137 15.9748 1.12524 16.1574C1.44888 16.2661 1.3363 16.2632 5.19465 16.2633C7.60377 16.2633 8.79173 16.2568 8.89323 16.243C9.73969 16.1275 10.4129 15.5344 10.6372 14.7066C10.6573 14.6324 10.6792 14.5314 10.6859 14.4821L10.6981 14.3923L12.0494 14.3845C13.4866 14.3761 13.4498 14.3783 13.8404 14.2779C14.824 14.0248 15.6758 13.2774 16.0582 12.3318C16.2484 11.8614 16.3042 11.5565 16.3043 10.9879C16.3044 10.588 16.2869 10.4174 16.2176 10.1373C16.0202 9.34049 15.5027 8.63769 14.7907 8.19938C14.5374 8.04341 14.2198 7.909 13.9298 7.83493C13.7441 7.78753 13.4218 7.7385 13.2958 7.7385H13.2001V7.32854V6.9186L13.9694 6.91272C14.7143 6.90704 14.7421 6.90549 14.8439 6.86417C15.0532 6.77917 15.2481 6.57908 15.3367 6.35806C15.3668 6.28296 15.3699 6.11667 15.3748 4.3274L15.3801 2.37853L15.7777 1.97637C16.215 1.53403 16.2626 1.46575 16.2995 1.22901C16.3645 0.811344 16.1141 0.415873 15.7063 0.292091C15.5212 0.235914 15.2657 0.263496 15.071 0.360691C15.0122 0.39005 14.4934 0.895943 13.3299 2.05875C11.7694 3.61823 11.6691 3.72248 11.6129 3.8433C11.5798 3.91467 11.5451 4.03062 11.5349 4.10461C11.5237 4.18515 11.5188 4.98619 11.5225 6.13619L11.5285 8.03477L11.5714 8.18768C11.7095 8.68077 12.0326 9.0647 12.4804 9.26775C12.6623 9.35022 12.8117 9.38201 13.1516 9.41066C13.657 9.45323 13.8957 9.5569 14.2041 9.86779C14.3947 10.0599 14.4984 10.2322 14.5793 10.4909C14.6195 10.6196 14.6241 10.6706 14.6241 10.9879C14.6241 11.3674 14.6112 11.4514 14.5176 11.682C14.4383 11.8774 14.3527 12.009 14.1955 12.177C13.9729 12.4149 13.7367 12.5653 13.4453 12.6545C13.3069 12.6969 13.2892 12.6975 12.0108 12.7036L10.7164 12.7097L10.7104 7.98295L10.7044 3.25625L10.6625 3.03644C10.5519 2.45525 10.3605 2.01953 10.0161 1.56465C9.57545 0.982683 8.90634 0.540383 8.19753 0.362488C7.80254 0.263343 7.84642 0.264738 5.17941 0.26707C3.18266 0.26881 2.6641 0.274353 2.52946 0.295359ZM2.84534 1.94754C2.27598 2.00739 1.79284 2.34343 1.54089 2.85485C1.40335 3.13405 1.38542 3.21764 1.37382 3.63375L1.36382 3.99214H5.19851H9.03318V3.72705C9.03318 3.15907 8.9067 2.80835 8.57492 2.45632C8.29006 2.15407 7.95732 1.99044 7.54067 1.94768C7.31599 1.92463 3.06454 1.92449 2.84534 1.94754ZM13.4435 4.31257L13.2001 4.55654V4.89555V5.23456H13.4485H13.697V4.65158C13.697 4.33094 13.6947 4.0686 13.692 4.0686C13.6892 4.0686 13.5774 4.17839 13.4435 4.31257ZM1.36843 6.70634V7.7385H5.2008H9.03318V6.70634V5.67418H5.2008H1.36843V6.70634ZM1.36843 11.8295C1.36843 13.9815 1.37181 14.2657 1.39811 14.3287C1.43747 14.4229 1.51366 14.5017 1.60735 14.5451C1.6809 14.5792 1.8178 14.5805 5.2008 14.5805C8.58119 14.5805 8.72082 14.5791 8.79561 14.5452C8.88893 14.5028 8.98144 14.396 9.01137 14.2961C9.02722 14.2432 9.03318 13.5635 9.03318 11.8124V9.40143H5.2008H1.36843V11.8295ZM2.89476 10.5486C2.54412 10.5919 2.23588 10.907 2.18909 11.27C2.16623 11.4473 2.16763 12.5723 2.19093 12.7368C2.24953 13.1509 2.59976 13.454 3.01872 13.4534C3.39003 13.4529 3.70591 13.2194 3.81549 12.8647C3.85037 12.7517 3.85324 12.6858 3.85303 12.0037C3.85286 11.448 3.84647 11.2414 3.82725 11.1695C3.71468 10.7488 3.33273 10.4944 2.89476 10.5486Z" fill="currentColor"/>
</g>
<defs>
<clipPath id="clip0_9724_326">
<rect width="16" height="16" fill="white"/>
</clipPath>
</defs>
</svg>

<svg xmlns="http://www.w3.org/2000/svg" width="16" height="16" fill="none">
  <g clip-path="url(#a)">
    <path fill="currentColor" fill-rule="evenodd" d="M2.53.295C1.196.503.112 1.482-.21 2.768c-.099.397-.092.009-.1 5.964-.004 4.03 0 5.563.016 5.693.03.253.082.422.2.663.25.514.675.887 1.22 1.07.323.108.21.105 4.069.105 2.409 0 3.597-.006 3.698-.02a2.081 2.081 0 0 0 1.744-1.536c.02-.075.042-.176.049-.225l.012-.09 1.351-.008c1.438-.008 1.4-.006 1.791-.106.984-.253 1.836-1 2.218-1.946.19-.47.246-.776.246-1.344 0-.4-.017-.57-.086-.85a3.197 3.197 0 0 0-1.427-1.939 3.264 3.264 0 0 0-.861-.364 3.604 3.604 0 0 0-.634-.096H13.2v-.82l.77-.006c.744-.006.772-.008.874-.049a.95.95 0 0 0 .493-.506c.03-.075.033-.241.038-2.03l.005-1.95.398-.402c.437-.442.485-.51.521-.747a.84.84 0 0 0-.593-.937.926.926 0 0 0-.635.069c-.059.03-.578.535-1.741 1.698-1.56 1.56-1.66 1.663-1.717 1.784a1.096 1.096 0 0 0-.078.262c-.011.08-.016.881-.012 2.031l.005 1.899.043.153c.139.493.462.877.91 1.08.181.082.33.114.67.143.506.042.745.146 1.053.457.19.192.294.364.375.623.04.129.045.18.045.497 0 .38-.013.463-.106.694-.08.195-.165.327-.323.495a1.653 1.653 0 0 1-.75.478c-.138.042-.156.043-1.434.049l-1.295.006-.006-4.727-.006-4.727-.042-.22A3.357 3.357 0 0 0 8.197.362C7.804.263 7.848.265 5.18.267 3.183.27 2.664.274 2.53.295Zm.315 1.653a1.627 1.627 0 0 0-1.304.907c-.138.279-.156.363-.167.779l-.01.358h7.669v-.265c0-.568-.126-.919-.458-1.27a1.576 1.576 0 0 0-1.034-.51c-.225-.022-4.476-.023-4.696 0Zm10.598 2.365-.243.244v.678h.497v-.583c0-.321-.002-.583-.005-.583s-.115.11-.248.244ZM1.369 6.706v1.032h7.665V5.675H1.368v1.032Zm0 5.123c0 2.152.004 2.437.03 2.5a.42.42 0 0 0 .21.216c.073.034.21.036 3.593.036 3.38 0 3.52-.002 3.595-.036a.44.44 0 0 0 .215-.249c.016-.053.022-.732.022-2.484v-2.41H1.368v2.428Zm1.527-1.28c-.35.043-.66.358-.706.721a15.54 15.54 0 0 0 .002 1.467.83.83 0 0 0 .828.716.825.825 0 0 0 .796-.588c.035-.113.038-.18.038-.861 0-.556-.007-.763-.026-.835a.835.835 0 0 0-.932-.62Z" clip-rule="evenodd"/>
  </g>
  <defs>
    <clipPath id="a">
      <path fill="#fff" d="M0 0h16v16H0z"/>
    </clipPath>
  </defs>
</svg>
